images/phone.svg

<?xml version="1.0" encoding="utf-8"?><!-- Uploaded to: SVG Repo, www.svgrepo.com, Generator: SVG Repo Mixer Tools -->
<svg width="800px" height="800px" viewBox="0 0 24 24" fill="none" xmlns="http://www.w3.org/2000/svg">
<path d="M3 5.5C3 14.0604 9.93959 21 18.5 21C18.8862 21 19.2691 20.9859 19.6483 20.9581C20.0834 20.9262 20.3009 20.9103 20.499 20.7963C20.663 20.7019 20.8185 20.5345 20.9007 20.364C21 20.1582 21 19.9181 21 19.438V16.6207C21 16.2169 21 16.015 20.9335 15.842C20.8749 15.6891 20.7795 15.553 20.6559 15.4456C20.516 15.324 20.3262 15.255 19.9468 15.117L16.74 13.9509C16.2985 13.7904 16.0777 13.7101 15.8683 13.7237C15.6836 13.7357 15.5059 13.7988 15.3549 13.9058C15.1837 14.0271 15.0629 14.2285 14.8212 14.6314L14 16C11.3501 14.7999 9.2019 12.6489 8 10L9.36863 9.17882C9.77145 8.93713 9.97286 8.81628 10.0942 8.64506C10.2012 8.49408 10.2643 8.31637 10.2763 8.1317C10.2899 7.92227 10.2096 7.70153 10.0491 7.26005L8.88299 4.05321C8.745 3.67376 8.67601 3.48403 8.55442 3.3441C8.44701 3.22049 8.31089 3.12515 8.15802 3.06645C7.98496 3 7.78308 3 7.37932 3H4.56201C4.08188 3 3.84181 3 3.63598 3.09925C3.4655 3.18146 3.29814 3.33701 3.2037 3.50103C3.08968 3.69907 3.07375 3.91662 3.04189 4.35173C3.01413 4.73086 3 5.11378 3 5.5Z" stroke="#000000" stroke-width="2" stroke-linecap="round" stroke-linejoin="round"/>
</svg>

<svg width="800" height="800" viewBox="0 0 24 24" fill="none" xmlns="http://www.w3.org/2000/svg"><path d="M3 5.5C3 14.06 9.94 21 18.5 21c.386 0 .77-.014 1.148-.042.435-.032.653-.048.851-.162a1.06 1.06 0 0 0 .402-.432c.099-.206.099-.446.099-.926v-2.817c0-.404 0-.606-.067-.779a.999.999 0 0 0-.277-.396c-.14-.122-.33-.191-.71-.329l-3.206-1.166c-.441-.16-.662-.24-.872-.227a1 1 0 0 0-.513.182c-.171.121-.292.322-.534.725L14 16a12.1 12.1 0 0 1-6-6l1.369-.821c.402-.242.604-.363.725-.534a1 1 0 0 0 .182-.513c.014-.21-.066-.43-.227-.872L8.883 4.053c-.138-.38-.207-.569-.329-.709a1 1 0 0 0-.396-.278C7.985 3 7.783 3 7.379 3H4.562c-.48 0-.72 0-.926.1a1.06 1.06 0 0 0-.432.401c-.114.198-.13.416-.162.85C3.014 4.732 3 5.115 3 5.5Z" stroke="#000" stroke-width="2" stroke-linecap="round" stroke-linejoin="round"/></svg>
